src/cucumber-ltd.svg

<svg width="355" height="104" viewBox="0 0 355 104" xmlns="http://www.w3.org/2000/svg">
    <title>
        cucumber-ltd
    </title>
    <g fill="none" fill-rule="evenodd">
        <path d="M0 0h298v104H0z"/>
        <path d="M247 51.3c-3 0-4.9 1.5-6.3 3.8 0-.6.3-1.3.3-1.8v-1h-5v25h5V62.9c0-4.1 2.2-6.6 6-6.6h1v-5h-1zM43.7 60.5c-1.4-2.2-3.4-3.7-6.3-3.7-4.6 0-7.9 3.5-7.9 7.9s3.3 7.9 7.9 7.9c2.9 0 4.9-1.4 6.3-3.6l4.6 2.7c-2.2 3.4-6.3 5.9-10.9 5.9-8.5 0-13.4-6.4-13.4-12.8S29 52 37.4 52c5.2 0 8.5 2.5 10.9 5.9l-4.6 2.6zm9-7.9h5.2v13.6c0 3.6 2.6 6.1 5.9 6.1 3.2 0 5.9-2.6 5.9-6.1V52.6h5.2v14c0 6.8-5.3 10.9-11.1 10.9s-11.1-4.1-11.1-10.9v-14zm46.6 7.9c-1.4-2.2-3.4-3.7-6.3-3.7-4.6 0-7.9 3.5-7.9 7.9s3.3 7.9 7.9 7.9c2.9 0 4.9-1.4 6.3-3.6l4.6 2.7c-2.2 3.4-6.3 5.9-10.9 5.9-8.5 0-13.4-6.4-13.4-12.8S84.5 52 93 52c5.2 0 8.5 2.5 10.9 5.9l-4.6 2.6zm9-7.9h5.2v13.6c0 3.6 2.6 6.1 5.9 6.1 3.2 0 5.9-2.6 5.9-6.1V52.6h5.2v14c0 6.8-5.3 10.9-11.1 10.9s-11.1-4.1-11.1-10.9v-14zm28.7 9.1c0-6.2 4.1-9.7 8.9-9.7 3.7 0 6.3 1.8 7.3 4.3h.1c1-2.6 3.6-4.3 7.3-4.3 4.8 0 8.9 3.6 8.9 9.7v15.2h-5.2V61.7c0-2.9-1.8-4.6-4-4.6-2.5 0-4.3 1.5-4.3 5.3v14.4h-5.2V62.4c0-3.8-1.8-5.3-4.3-5.3-2.2 0-4 1.7-4 4.6v15.1H137V61.7zm38.9-16.3h5.2v10.2h.1c1.2-2 4.5-3.6 7.9-3.6 6.3 0 12.6 4.7 12.6 12.8 0 8.1-6.3 12.8-12.6 12.8-3.4 0-6.7-1.6-7.9-3.6h-.1v3h-5.2V45.4zm12.7 11.5c-4.3 0-7.5 3.4-7.5 7.9s3.2 7.9 7.5 7.9c4.4 0 7.6-3.4 7.6-7.9 0-4.6-3.2-7.9-7.6-7.9zm41.1 14.7c-2.9 3.7-6.9 5.9-11.3 5.9-8.5 0-13.4-6.4-13.4-12.8S210 52 218.4 52c5 0 12.6 4.2 12.6 13.6v.9h-20.1c.3 3.7 3.8 6.4 7.4 6.4 2.8 0 5.2-1.4 7-3.8l4.4 2.5zm-4.8-9.4c-1.1-3.7-3.8-5.7-7.2-5.7-3.3 0-6 2.1-6.9 5.7h14.1z" fill="#000"/>
        <path d="M245.817 31.195c0 7.968 5.712 14.589 13.25 16.062v4.688c9.8-1.478 18.478-9.257 19.125-19.47.39-6.146-2.675-12.42-7.844-15.468a13.755 13.755 0 0 0-.906-.5c-.315-.155-.64-.306-.969-.437-.104-.044-.207-.084-.312-.125-.288-.107-.578-.226-.875-.313a16.246 16.246 0 0 0-5.094-.812c-9.05 0-16.375 7.324-16.375 16.375z" fill="#65696B"/>
        <path d="M265.567 20.882a1.787 1.787 0 0 0-1.562.625c-.3.4-.488.788-.688 1.188-.6 1.4-.4 2.9.5 4 1.4-.3 2.588-1.194 3.188-2.594.2-.4.312-.913.312-1.313.063-1.062-.816-1.81-1.75-1.906zm-7.281.094c-.913.087-1.781.812-1.781 1.812 0 .4.112.913.312 1.313.6 1.4 1.881 2.294 3.281 2.594.8-1.1 1.007-2.6.407-4-.2-.4-.388-.794-.688-1.094a1.757 1.757 0 0 0-1.531-.625zm-4.906 4.812c-1.577.081-2.282 2.063-.97 3.094.4.3.788.519 1.188.719 1.4.6 3.02.394 4.22-.406-.3-1.3-1.32-2.494-2.72-3.094-.5-.2-.906-.313-1.406-.313-.112-.012-.207-.005-.312 0zm15.406 6.063a4.574 4.574 0 0 0-2.594.75c.3 1.3 1.319 2.494 2.719 3.094.5.2.906.312 1.406.312 1.8.1 2.681-2.125 1.281-3.125-.4-.3-.787-.487-1.187-.687a4.32 4.32 0 0 0-1.625-.344zm-13.656.094c-.55.01-1.1.118-1.625.343-.5.2-.888.42-1.188.72-1.3 1.1-.425 3.193 1.375 3.093.5 0 1.006-.113 1.406-.313 1.4-.6 2.394-1.793 2.594-3.093a4.475 4.475 0 0 0-2.562-.75zm5.062 3.062c-1.4.3-2.587 1.194-3.187 2.594-.2.4-.313.881-.313 1.281-.1 1.7 2.219 2.613 3.219 1.313.3-.4.487-.788.687-1.188.6-1.3.394-2.8-.406-4zm3.719.094c-.8 1.1-1.006 2.6-.406 4 .2.4.387.794.687 1.094 1.1 1.2 3.413.312 3.313-1.188 0-.4-.113-.912-.313-1.312-.6-1.4-1.881-2.294-3.281-2.594z" fill="#FFF"/>
        <text transform="translate(274 13)" font-size="10" font-family="Roboto-Regular, Roboto" fill="#65696B">
            <tspan x=".373" y="9">™</tspan>
        </text>
        <text transform="translate(274 45)" font-size="50" font-family="InsigniaLTStd, Insignia LT Std" fill="#65696B">
            <tspan x=".95" y="31.5">ltd</tspan>
        </text>
    </g>
</svg>

<?xml version="1.0" encoding="UTF-8" standalone="no"?>
<svg width="362px" height="107px" viewBox="0 0 362 107" version="1.1" xmlns="http://www.w3.org/2000/svg" xmlns:xlink="http://www.w3.org/1999/xlink">
    <!-- Generator: Sketch 39.1 (31720) - http://www.bohemiancoding.com/sketch -->
    <title>cucumber-ltd</title>
    <desc>Created with Sketch.</desc>
    <defs></defs>
    <g id="Page-1" stroke="none" stroke-width="1" fill="none" fill-rule="evenodd">
        <g id="cucumber-ltd" transform="translate(4.000000, 0.000000)">
            <g id="Group">
                <polygon id="Shape" points="0 0 298 0 298 104 0 104"></polygon>
                <path d="M247,51.3 C244,51.3 242.1,52.8 240.7,55.1 C240.7,54.5 241,53.8 241,53.3 L241,52.3 L236,52.3 L236,77.3 L241,77.3 L241,62.9 C241,58.8 243.2,56.3 247,56.3 L248,56.3 L248,51.3 L247,51.3 L247,51.3 Z M43.7,60.5 C42.3,58.3 40.3,56.8 37.4,56.8 C32.8,56.8 29.5,60.3 29.5,64.7 C29.5,69.1 32.8,72.6 37.4,72.6 C40.3,72.6 42.3,71.2 43.7,69 L48.3,71.7 C46.1,75.1 42,77.6 37.4,77.6 C28.9,77.6 24,71.2 24,64.8 C24,58.4 29,52 37.4,52 C42.6,52 45.9,54.5 48.3,57.9 L43.7,60.5 L43.7,60.5 Z M52.7,52.6 L57.9,52.6 L57.9,66.2 C57.9,69.8 60.5,72.3 63.8,72.3 C67,72.3 69.7,69.7 69.7,66.2 L69.7,52.6 L74.9,52.6 L74.9,66.6 C74.9,73.4 69.6,77.5 63.8,77.5 C58,77.5 52.7,73.4 52.7,66.6 L52.7,52.6 L52.7,52.6 Z M99.3,60.5 C97.9,58.3 95.9,56.8 93,56.8 C88.4,56.8 85.1,60.3 85.1,64.7 C85.1,69.1 88.4,72.6 93,72.6 C95.9,72.6 97.9,71.2 99.3,69 L103.9,71.7 C101.7,75.1 97.6,77.6 93,77.6 C84.5,77.6 79.6,71.2 79.6,64.8 C79.6,58.4 84.5,52 93,52 C98.2,52 101.5,54.5 103.9,57.9 L99.3,60.5 L99.3,60.5 Z M108.3,52.6 L113.5,52.6 L113.5,66.2 C113.5,69.8 116.1,72.3 119.4,72.3 C122.6,72.3 125.3,69.7 125.3,66.2 L125.3,52.6 L130.5,52.6 L130.5,66.6 C130.5,73.4 125.2,77.5 119.4,77.5 C113.6,77.5 108.3,73.4 108.3,66.6 L108.3,52.6 L108.3,52.6 Z M137,61.7 C137,55.5 141.1,52 145.9,52 C149.6,52 152.2,53.8 153.2,56.3 L153.3,56.3 C154.3,53.7 156.9,52 160.6,52 C165.4,52 169.5,55.6 169.5,61.7 L169.5,76.9 L164.3,76.9 L164.3,61.7 C164.3,58.8 162.5,57.1 160.3,57.1 C157.8,57.1 156,58.6 156,62.4 L156,76.8 L150.8,76.8 L150.8,62.4 C150.8,58.6 149,57.1 146.5,57.1 C144.3,57.1 142.5,58.8 142.5,61.7 L142.5,76.8 L137,76.8 L137,61.7 L137,61.7 Z M175.9,45.4 L181.1,45.4 L181.1,55.6 L181.2,55.6 C182.4,53.6 185.7,52 189.1,52 C195.4,52 201.7,56.7 201.7,64.8 C201.7,72.9 195.4,77.6 189.1,77.6 C185.7,77.6 182.4,76 181.2,74 L181.1,74 L181.1,77 L175.9,77 L175.9,45.4 L175.9,45.4 Z M188.6,56.9 C184.3,56.9 181.1,60.3 181.1,64.8 C181.1,69.3 184.3,72.7 188.6,72.7 C193,72.7 196.2,69.3 196.2,64.8 C196.2,60.2 193,56.9 188.6,56.9 L188.6,56.9 Z M229.7,71.6 C226.8,75.3 222.8,77.5 218.4,77.5 C209.9,77.5 205,71.1 205,64.7 C205,58.3 210,52 218.4,52 C223.4,52 231,56.2 231,65.6 L231,66.5 L210.9,66.5 C211.2,70.2 214.7,72.9 218.3,72.9 C221.1,72.9 223.5,71.5 225.3,69.1 L229.7,71.6 L229.7,71.6 Z M224.9,62.2 C223.8,58.5 221.1,56.5 217.7,56.5 C214.4,56.5 211.7,58.6 210.8,62.2 L224.9,62.2 L224.9,62.2 Z" id="Shape" fill="#000000"></path>
                <path d="M245.817,31.195 C245.817,39.163 251.529,45.784 259.067,47.257 L259.067,51.945 C268.867,50.467 277.545,42.688 278.192,32.475 C278.582,26.329 275.517,20.055 270.348,17.007 C270.052378,16.8290283 269.750165,16.6622437 269.442,16.507 C269.127,16.352 268.802,16.201 268.473,16.07 C268.369,16.026 268.266,15.986 268.161,15.945 C267.873,15.838 267.583,15.719 267.286,15.632 C265.64208,15.091772 263.922408,14.8176508 262.192,14.82 C253.142,14.82 245.817,22.144 245.817,31.195 Z" id="Shape" fill="#65696B"></path>
                <path d="M265.567,20.882 C264.974695,20.8168793 264.388899,21.0512725 264.005,21.507 C263.705,21.907 263.517,22.295 263.317,22.695 C262.717,24.095 262.917,25.595 263.817,26.695 C265.217,26.395 266.405,25.501 267.005,24.101 C267.205,23.701 267.317,23.188 267.317,22.788 C267.38,21.726 266.501,20.978 265.567,20.882 L265.567,20.882 Z M258.286,20.976 C257.373,21.063 256.505,21.788 256.505,22.788 C256.505,23.188 256.617,23.701 256.817,24.101 C257.417,25.501 258.698,26.395 260.098,26.695 C260.898,25.595 261.105,24.095 260.505,22.695 C260.305,22.295 260.117,21.901 259.817,21.601 C259.44273,21.1505191 258.868604,20.9161437 258.286,20.976 L258.286,20.976 Z M253.38,25.788 C251.803,25.869 251.098,27.851 252.41,28.882 C252.81,29.182 253.198,29.401 253.598,29.601 C254.998,30.201 256.618,29.995 257.818,29.195 C257.518,27.895 256.498,26.701 255.098,26.101 C254.598,25.901 254.192,25.788 253.692,25.788 C253.58,25.776 253.485,25.783 253.38,25.788 L253.38,25.788 Z M268.786,31.851 C267.865561,31.8342613 266.96149,32.0956542 266.192,32.601 C266.492,33.901 267.511,35.095 268.911,35.695 C269.411,35.895 269.817,36.007 270.317,36.007 C272.117,36.107 272.998,33.882 271.598,32.882 C271.198,32.582 270.811,32.395 270.411,32.195 C269.896685,31.9762988 269.344819,31.8594731 268.786,31.851 L268.786,31.851 Z M255.13,31.945 C254.58,31.955 254.03,32.063 253.505,32.288 C253.005,32.488 252.617,32.708 252.317,33.008 C251.017,34.108 251.892,36.201 253.692,36.101 C254.192,36.101 254.698,35.988 255.098,35.788 C256.498,35.188 257.492,33.995 257.692,32.695 C256.934193,32.190167 256.040415,31.9285223 255.13,31.945 L255.13,31.945 Z M260.192,35.007 C258.792,35.307 257.605,36.201 257.005,37.601 C256.805,38.001 256.692,38.482 256.692,38.882 C256.592,40.582 258.911,41.495 259.911,40.195 C260.211,39.795 260.398,39.407 260.598,39.007 C261.198,37.707 260.992,36.207 260.192,35.007 L260.192,35.007 Z M263.911,35.101 C263.111,36.201 262.905,37.701 263.505,39.101 C263.705,39.501 263.892,39.895 264.192,40.195 C265.292,41.395 267.605,40.507 267.505,39.007 C267.505,38.607 267.392,38.095 267.192,37.695 C266.592,36.295 265.311,35.401 263.911,35.101 L263.911,35.101 Z" id="Shape" fill="#FFFFFF"></path>
                <g transform="translate(274.000000, 13.000000)" id="™" font-size="10" font-family="Roboto-Regular, Roboto" fill="#65696B" font-weight="normal">
                    <text>
                        <tspan x="0.373" y="9">™</tspan>
                    </text>
                </g>
                <text id="ltd" fill="#65696B" font-family="InsigniaLTStd, Insignia LT Std" font-size="50" font-weight="normal">
                    <tspan x="274.95" y="76.5">ltd</tspan>
                </text>
                <path d="M305.5,60.5 L307,62" id="Line" stroke="#979797" stroke-linecap="square"></path>
            </g>
        </g>
    </g>
</svg>
